X:1
T:Den norske Mö
T:Den norske Mö
T:Waldemar Thrane
C:Waldemar Thrane
%%score [ 1 2 3 4 ]
L:1/8
M:4/4
K:D
V:1 treble-8 nm="T1"
V:2 treble-8 nm="T2"
V:3 bass nm="B1"
V:4 bass nm="B2"
V:1
!f! A | d2 f2 d c d2 | (B^A) B d =A2 z A | d c d f (dc) d B | (cedB) A2 z!mf! E | %5
w: Saa|kom og klink og drikt|Kjær- * lig- heds Skaal, mens|Tan- ken fly- ver hen _ til din|Pi- * * * ge. Hvis|
 d c d c (B^A) B ^G | A2 A2 z2 z e | d c d c (B^AB) ^G | A2 z2 z2 z A | f e g f e d c d | %10
w: du er El- sker, vil _ du ei|svi- ge, se|Bro- der, her er bred- * * fuldt|Maal. Hæv|Glas- set höit, sjung hen- des Navn, den|
 e f g f e A B c | d2 d e f2 d A | (B^AB) G d2 B2 | A!<(! d f d!<)! a3 c |!>(! e4 d2!>)! z2 |] %15
w: Hul- de, hvem vi Skaa- len vi- e,|gjen- ly- de skal den fra|Klip- * * pens Favn, thi|den er hel- li- get Ma-|ri- e!|
V:2
!f! A | A2 d2 A A A2 | G2 G G F2 z A | A A A ^A (BA) B B | (=AcB^G) A2 z!mf! E | %5
w: Saa|kom og klink og drikt|Kjær- lig- heds Skaal, mens|Tan- ken fly- ver hen _ til din|Pi- * * * ge. Hvis|
 B A ^G A (G^^F) G E | E2 E2 z2 z c | B A ^G A F3 E | E2 z2 z2 z A | d d d d A A A A | %10
w: du er El- sker, vil _ du ei|svi- ge, se|Bro- der, her er bred- fuldt|Maal. Hæv|Glas- set höit, sjung hen- des Navn, den|
 c d e d c A A A | A2 d c d2 A F | G3 G B2 G2 | F!<(! A A d!<)! c3 A |!>(! c4 d2!>)! z2 |] %15
w: Hul- de, hvem vi Skaa- len vi- e,|gjen- ly- de skal den fra|Klip- pens Favn, thi|den er hel- li- get Ma-|ri- e!|
V:3
!f! A, | A,2 A,2 F, G, A,2 | G,2 D, D, D,2 z A, | A, G, F, F, F,2 F, F, | (E,3 D,) C,2 z!mf! E, | %5
w: Saa|kom og klink og drikt|Kjær- lig- heds Skaal, mens|Tan- ken fly- ver hen til din|Pi- * ge. Hvis|
 E, E, E, E, E,2 E, D, | C,2 C,2 z2 z E, | E, E, E, E, (F,E,D,) E, | C,2 z2 z2 z A, | %9
w: du er El- sker, vil du ei|svi- ge, se|Bro- der, her er bred- * * fuldt|Maal. Hæv|
 A, G, B, A, G, F, E, F, | A, A, A, A, A, E, F, G, | A,2 A, A, A,2 F, D, | (D,C,D,) G, G,2 D,2 | %13
w: Glas- set höit, sjung hen- des Navn, den|Hul- de, hvem vi Skaa- len vi- e,|gjen- ly- de skal den fra|Klip- * * pens Favn, thi|
 D,!<(! F, D, F,!<)! A,3 G, |!>(! G,4 F,2!>)! z2 |] %15
w: den er hel- li- get Ma-|ri- e!|
V:4
!f! A, | F,2 D,2 D, E, F,2 | G,2 G,, B,, D,2 z A, | F, E, D, C, B,,2 B,, D, | %4
w: Saa|kom og klink og drikt|Kjær- lig- heds Skaal, mens|Tan- ken fly- ver hen til din|
 (E,2 E,,2) A,,2 z!mf! E, | ^G,, A,, B,, C, (D,C,) D, B,, | A,,2 E,2 C,2 A,,2 | %7
w: Pi- * ge. Hvis|du er El- sker, vil _ du ei|svi- * ge, se|
 ^G,, A,, B,, C, (D,C,D,) E, | A,,2 C, E, A, =G, F, E, | D, D, D, D, D, D, D, D, | %10
w: Bro- der, her er bred- * * fuldt|Maal, her er bred- fuldt Maal. Hæv|Glas- set höit, sjung hen- des Navn, den|
 A,, A,, A,, A,, A,, C, D, E, | F,2 F, E, D,2 D, D, | G,,3 G,, G,2 G,,2 | %13
w: Hul- de, hvem vi Skaa- len vi- e,|gjen- ly- de skal den fra|Klip- pens Favn, thi|
!<(! A,,3 A,,!<)! A,, C, E, A,, |!>(! A,,4 D,2!>)! z2 |] %15
w: den er hel- li- get Ma-|ri- e!|

